dist/img/svg/r_mask.svg

<svg width="133" height="225" viewBox="0 0 133 225" fill="none" xmlns="http://www.w3.org/2000/svg">
<g clip-path="url(#clip0_1253_12113)">
<path fill-rule="evenodd" clip-rule="evenodd" d="M19.9572 157.366H51.4754C53.9185 157.366 56.028 155.638 56.5338 153.226L71.7628 80.88C72.2687 78.4678 74.3781 76.7401 76.8212 76.7401H108.894C111.321 76.7401 113.425 75.0341 113.947 72.6382L129.703 0.221784C130.225 -2.17417 132.324 -3.88013 134.756 -3.88013H321.336C324.624 -3.88013 327.083 -0.815918 326.394 2.43301L322.035 23.1273C321.352 26.3762 323.8 29.435 327.088 29.4404L488.834 29.6903C492.116 29.6958 494.565 32.7546 493.887 35.9981L447.032 258.74C446.526 261.152 444.416 262.88 441.973 262.88H277.968C274.68 262.88 272.226 259.821 272.91 256.572L275.493 244.299C276.176 241.05 273.722 237.991 270.434 237.991H84.9954C81.7074 237.991 79.2536 234.933 79.937 231.684L94.2512 163.684C94.9346 160.435 92.4808 157.377 89.1928 157.377H59.8541C57.4163 157.377 55.3015 159.104 54.7956 161.517L39.572 233.862C39.0662 236.275 36.9513 238.002 34.5136 238.002H5.17486C1.88152 238.002 -0.572346 234.938 0.116458 231.689L14.8935 161.517C15.4047 159.104 17.5141 157.377 19.9519 157.377H19.9572V157.366Z" fill="currentColor"/>
</g>
<defs>
<clipPath id="clip0_1253_12113">
<rect width="494" height="264" fill="white" transform="translate(0 -2)"/>
</clipPath>
</defs>
</svg>

<svg width="133" height="225" viewBox="0 0 133 225" fill="none" xmlns="http://www.w3.org/2000/svg"><g clip-path="url(#clip0_1253_12113)"><path fill-rule="evenodd" clip-rule="evenodd" d="M19.957 157.366h31.518c2.444 0 4.553-1.728 5.059-4.14L71.763 80.88c.506-2.412 2.615-4.14 5.058-4.14h32.073c2.427 0 4.531-1.706 5.053-4.102L129.703.222c.522-2.396 2.621-4.102 5.053-4.102h186.58c3.288 0 5.747 3.064 5.058 6.313l-4.359 20.694c-.683 3.25 1.765 6.308 5.053 6.313l161.746.25c3.282.006 5.731 3.065 5.053 6.308L447.032 258.74c-.506 2.412-2.616 4.14-5.059 4.14H277.968c-3.288 0-5.742-3.059-5.058-6.308l2.583-12.273c.683-3.249-1.771-6.308-5.059-6.308H84.995c-3.288 0-5.741-3.058-5.058-6.307l14.314-68c.684-3.249-1.77-6.307-5.058-6.307H59.854c-2.438 0-4.553 1.727-5.058 4.14l-15.224 72.345c-.506 2.413-2.62 4.14-5.058 4.14H5.174c-3.292 0-5.746-3.064-5.058-6.313l14.777-70.172c.512-2.413 2.621-4.14 5.059-4.14h.005v-.011z" fill="currentColor"/></g><defs><clipPath id="clip0_1253_12113"><path fill="#fff" transform="translate(0 -2)" d="M0 0h494v264H0z"/></clipPath></defs></svg>
